rusokon/images/icon-func-3.svg

<svg xmlns="http://www.w3.org/2000/svg" width="86" viewBox="0 0 86 86"><defs><style>.cls-1{fill:#8d8d8d;}.cls-2{fill:#ff1a46;}</style></defs><title>icon-func-3</title><path class="cls-1" d="M85 1v84h-84v-84h84m1-1h-86v86h86v-86z"/><path class="cls-2" d="M68.1 19.9a1.23 1.23 0 0 0-1.3.1 16.52 16.52 0 0 1-9.2 2.7 16.68 16.68 0 0 1-13.6-6.9 1.46 1.46 0 0 0-2.2 0 16.82 16.82 0 0 1-13.6 6.9 16.43 16.43 0 0 1-9.1-2.7 1.23 1.23 0 0 0-1.3-.1 1.55 1.55 0 0 0-.8 1.1c-2 20.3 5 32.7 11.2 39.5a39.07 39.07 0 0 0 14.3 10.1.6.6 0 0 0 .4.1c.2 0 .3 0 .4-.1a39.07 39.07 0 0 0 14.3-10.1c6.2-6.8 13.2-19.3 11.2-39.5a1.23 1.23 0 0 0-.7-1.1zm-11.9 39.4a39 39 0 0 1-13.3 9.7 38.15 38.15 0 0 1-13.2-9.6c-8.3-9.1-12.1-22.8-11.1-37.7 2.8 1.4 5.9 3.1 9 3.1 5.9 0 11.3-3.5 15.2-7.9 3.9 4.4 9.3 7.9 15.2 7.9 3.1 0 6.2-1.7 9-3.1 1.3 15.1-2.4 28.4-10.8 37.6zM52.2 54a2.88 2.88 0 0 1-2.1-.9l-9.9-9.9-3 3a1.61 1.61 0 0 1-1.1.5 1.61 1.61 0 0 1-1.1-.5l-4.4-4.2a1.69 1.69 0 0 1 0-2.3l10.2-10.2a1.69 1.69 0 0 1 2.3 0l4.3 4.3a1.69 1.69 0 0 1 0 2.3l-3 3 9.9 9.9a2.9 2.9 0 0 1 0 4.2 3.23 3.23 0 0 1-2.1.8zm-10.9-11.7l9.9 9.9a1.5 1.5 0 0 0 1.1.4 2.1 2.1 0 0 0 1.1-.4 1.5 1.5 0 0 0 .4-1.1 2.1 2.1 0 0 0-.4-1.1l-9.9-9.9zm.7-11.9h-.1l-10.3 10.3c-.1.1-.1.2 0 .2l4.3 4.3h.2l10.2-10.2c.1-.1.1-.2 0-.2l-4.3-4.3c.1 0 0-.1 0-.1z"/></svg>

<svg id="Layer_1" data-name="Layer 1" xmlns="http://www.w3.org/2000/svg" width="86px" viewBox="0 0 86 86"><defs><style>.cls-1{fill:#8d8d8d;}.cls-2{fill:#ff1a46;}</style></defs><title>icon-func-3</title><path class="cls-1" d="M85,1V85H1V1H85m1-1H0V86H86V0Z"/><path class="cls-2" d="M68.1,19.9a1.23,1.23,0,0,0-1.3.1,16.52,16.52,0,0,1-9.2,2.7A16.68,16.68,0,0,1,44,15.8a1.46,1.46,0,0,0-2.2,0,16.82,16.82,0,0,1-13.6,6.9A16.43,16.43,0,0,1,19.1,20a1.23,1.23,0,0,0-1.3-.1A1.55,1.55,0,0,0,17,21c-2,20.3,5,32.7,11.2,39.5A39.07,39.07,0,0,0,42.5,70.6a.6.6,0,0,0,.4.1c.2,0,.3,0,.4-.1A39.07,39.07,0,0,0,57.6,60.5C63.8,53.7,70.8,41.2,68.8,21A1.23,1.23,0,0,0,68.1,19.9ZM56.2,59.3A39,39,0,0,1,42.9,69a38.15,38.15,0,0,1-13.2-9.6c-8.3-9.1-12.1-22.8-11.1-37.7,2.8,1.4,5.9,3.1,9,3.1,5.9,0,11.3-3.5,15.2-7.9,3.9,4.4,9.3,7.9,15.2,7.9,3.1,0,6.2-1.7,9-3.1C68.3,36.8,64.6,50.1,56.2,59.3Z"/><path class="cls-2" d="M52.2,54a2.88,2.88,0,0,1-2.1-.9l-9.9-9.9-3,3a1.61,1.61,0,0,1-1.1.5h0a1.61,1.61,0,0,1-1.1-.5L30.6,42a1.69,1.69,0,0,1,0-2.3L40.8,29.5a1.69,1.69,0,0,1,2.3,0l4.3,4.3h0a1.69,1.69,0,0,1,0,2.3l-3,3L54.3,49a2.9,2.9,0,0,1,0,4.2A3.23,3.23,0,0,1,52.2,54ZM41.3,42.3l9.9,9.9a1.5,1.5,0,0,0,1.1.4,2.1,2.1,0,0,0,1.1-.4,1.5,1.5,0,0,0,.4-1.1,2.1,2.1,0,0,0-.4-1.1l-9.9-9.9ZM42,30.4h-.1L31.6,40.7c-.1.1-.1.2,0,.2l4.3,4.3h.2L46.3,35c.1-.1.1-.2,0-.2L42,30.5C42.1,30.5,42,30.4,42,30.4Z"/></svg>
